X:0378
T:"There's An End To My Sorrow"  (air)    0378
C:after Chief F. O'Neill
C:plaintively
N:>>>>>>seems like there should be a repeat for the 2nd part, too.<<<<<<
Q:1/4=60
B:O'Neill's Music Of Ireland (The 1850) Lyon & Healy, Chicago, 1903 edition
Z:FROM O'NEILL'S TO NOTEWORTHY, FROM NOTEWORTHY TO ABC, MIDI AND .TXT BY VINCE BRENNAN June 2003 (HTTP://WWW.SOSYOURMOM.COM)
I:abc2nwc
M:6/8
L:1/8
K:C
"_vb"(A3/4B/4)|.c(d/2c/2B/2A/2) .B(c/2B/2A/2G/2)|(D3/4E/4).G.G G2(A3/4B/4)|.c(d/2c/2B/2A/2) (B/2e3/2) (A3/4G/4)|(EA)(A3/4B/4) A2(A3/4B/4)|
(c/2B/2c/2d/2e/2^f/2) (g3/2=f/2e)|(e/2d/2c/2B/2)  (3(g/2a/2b/2) G2(A3/4B/4)|.c(d/2c/2B/2A/2) (Be) (A/2G/2)|(EA)(A3/4B/4) A2:|
(a3/4b/4)|(c'3/2b/2a) (bag)|(d3/4e/4).g.g g2(a3/4b/4)|(c'3/2b/2a) (bag)|(ea)(a3/4b/4) a2(A3/4B/4)|
A2(c/2B/2c/2d/2e/2^f/2) (g3/2=f/2e)|(e/2d/2c/2B/2)  (3(g/2a/2b/2) G2(A3/4B/4)|.c(d/2c/2)(B/2A/2) Be A3/4G/4|(EA)(A3/4B/4) A2|]
